X:1
T:Title
%%score { ( 1 3 4 ) | ( 2 5 ) }
L:1/8
M:9/8
K:G
V:1 treble nm="Grand Piano"
V:3 treble 
V:4 treble 
V:2 bass 
V:5 bass 
V:1
 z3 z2[Q:1/4=100] D DDD | [DB]3 [DB]2 [DG] FGA | G3- G2 D DDD | [Fc]3 [Fc]2 B AGA | B3- B2 D DGB | %5
 d3 d2 B BAB | [Ec]3- [Ec]2 [Ec] [CE][EG][^DA] | [DB]3 [DB]2 [DG] FGA |[M:5/8] G-G- G3 | %9
[M:2/4] GG GG |[M:9/8] .e6 z3 | d6 z3 | .d6 z3 | A6 z3 | B3 B2 B [=Fd][Fd][Fd] | %15
 [Ec]3- [Ec]2 c EG[EA] | .B6 z3 |[M:5/8] [B,DG]-[B,DG]- [B,DG]3 |] %18
V:2
 z3 z2 D, D,D,D, | [G,,G,]3 [G,,G,]2 [B,,G,] [D,A,D][D,B,D][D,CD] | %2
 [G,B,D]3- [G,B,D]2 [G,B,] [G,B,][G,B,][G,B,] | [D,A,]3 [D,A,]2 [D,G,D] [D,F,D][D,E,D][F,A,D] | %4
 [G,D]3- [G,D]2 [G,B,] [G,B,][K:treble][G,B,D][G,DG] | %5
 [G,B,G]3 [G,B,G]2 [G,DG] [G,D=F][G,DF][G,F] | [C,G,]3- [C,G,]2 [C,G,] [C,G,][C,G,][C,G,] | %7
 [G,,G,]3 [G,,G,]2 [B,,G,] [D,A,D][D,B,D][D,CD] |[M:5/8] [G,B,D]-[G,B,D]- [G,B,D]3 | %9
[M:2/4] z2 z [G,B,] |[M:9/8] [C,C][E,C][G,C] [C,C]3 z[K:treble] c[K:bass][C,C] | %11
 [G,,B,G][B,,B,][D,B,] .[G,B,]3 z2 [G,D] | [D,A,][D,A,][D,A,] [D,D]3 z AA,, | %13
 D,[F,D][A,D] [D,D]2 [D,C] [G,B,][K:treble][G,B,D][G,CD] | %14
 [G,DG]3 [G,DG]2 [G,DG][K:bass] [B,,G,][B,,G,][B,,G,] | [C,G,]6 z2 [C,G,] | %16
 [G,,G,][G,,G,][G,,G,] [G,,G,][A,,F,]B,, D,D,D, |[M:5/8] G,,-G,,- G,,3 |] %18
V:3
 x9 | x9 | x9 | x9 | x9 | x9 | x9 | x9 |[M:5/8] x5 |[M:2/4] x4 |[M:9/8] GGG z cc .[CEG]2 [Ge] | %11
 z GG G2 D DGB | FFF z AA .[^CGB]2 [CG] | [DF]FF F2 D DGA | x9 | x9 | %16
 DDD D[DA][G,DG] [A,DF][B,DG][CDA] |[M:5/8] x5 |] %18
V:4
 x9 | x9 | x9 | x9 | x9 | x9 | x9 | x9 |[M:5/8] x5 |[M:2/4] x4 |[M:9/8] z3 E3 z3 | x9 | z3 F3 z3 | %13
 x9 | x9 | x9 | x9 |[M:5/8] x5 |] %18
V:5
 x9 | x9 | x9 | x9 | x7[K:treble] x2 | x9 | x9 | x9 |[M:5/8] x5 |[M:2/4] x4 | %10
[M:9/8] z3 z3 .C,3[K:treble][K:bass] | x9 | z3 z3 .A,,3 | x7[K:treble] x2 | x6[K:bass] x3 | x9 | %16
 x9 |[M:5/8] x5 |] %18

